src/64x64/places/folder-gruvbox-mix-aqua-steam.svg

<?xml version="1.0" encoding="UTF-8"?>
<svg width="64" height="64" version="1" xmlns="http://www.w3.org/2000/svg">
 <rect x="4" y="22" width="56" height="36" rx="2.8" ry="2.8" opacity=".2"/>
 <path d="m4 46.2c0 1.551 1.2488 2.8 2.8 2.8h50.4c1.551 0 2.8-1.249 2.8-2.8v-30.4c0-1.551-1.249-2.8-2.8-2.8h-25.2c-4.2 0-5.6-6-9.8-6h-15.4c-1.5512 0-2.8 1.2488-2.8 2.8" fill="#477a5b"/>
 <rect x="4" y="20" width="56" height="36" rx="2.8" ry="2.8" opacity=".2"/>
 <rect x="8" y="16" width="48" height="22" rx="2.8" ry="2.8" fill="#DCE0BB"/>
 <rect x="4" y="21" width="56" height="36" rx="2.8" ry="2.8" fill="#8bba7f"/>
 <path d="m6.8008 7c-1.5512 0-2.8008 1.2496-2.8008 2.8008v1.0002c0-1.5514 1.2496-2.801 2.8008-2.801h15.398c4.2 0 5.601 6 9.801 6h25.199c1.551 0 2.801 1.25 2.801 2.801v-1c0-1.551-1.25-2.801-2.801-2.801h-25.199c-4.2 0-5.601-6-9.801-6z" fill="#DCE0BB" opacity=".1"/>
 <path d="m16 42.112 6.016 3.474c-0.01 0.138-0.016 0.276-0.016 0.414 0 3.314 2.686 6 6 6s6-2.686 6-6c-4e-3 -0.274-0.026-0.546-0.066-0.816l7.276-5.196c3.78-0.114 6.786-3.208 6.79-6.988 0-3.866-3.134-7-7-7s-7.002 3.134-7 7.028l-4.644 7.136c-0.444-0.106-0.9-0.162-1.356-0.164-0.906 2e-3 -1.8 0.21-2.614 0.606l-9.386-5.418m25-7.188c2.762 0 5 2.238 5 5s-2.238 5-5 5-5-2.238-5-5 2.238-5 5-5zm0 2c-1.656 0-3 1.344-3 3s1.344 3 3 3 3-1.344 3-3-1.344-3-3-3zm-13 12c2.21 0 4 1.79 4 4s-1.79 4-4 4c-1.908-2e-3 -3.548-1.352-3.918-3.222l1.41 0.816c1.44 0.83 3.266 0.342 4.098-1.098 0.83-1.44 0.342-3.266-1.098-4.098l-0.676-0.39c0.062-4e-3 0.122-6e-3 0.184-8e-3z" fill="#39433D"/>
</svg>

<svg xmlns="http://www.w3.org/2000/svg" width="64" height="64" version="1">
 <rect style="opacity:0.2" width="56" height="36" x="4" y="22" rx="2.8" ry="2.8"/>
 <path style="fill:#477a5b" d="M 4,46.2 C 4,47.751 5.2488,49 6.8,49 H 57.2 C 58.751,49 60,47.751 60,46.2 V 15.8 C 60,14.249 58.751,13 57.2,13 H 32 C 27.8,13 26.4,7 22.2,7 H 6.8 C 5.2488,7 4,8.2488 4,9.8"/>
 <rect style="opacity:0.2" width="56" height="36" x="4" y="20" rx="2.8" ry="2.8"/>
 <rect style="fill:#DCE0BB" width="48" height="22" x="8" y="16" rx="2.8" ry="2.8"/>
 <rect style="fill:#8bba7f" width="56" height="36" x="4" y="21" rx="2.8" ry="2.8"/>
 <path style="opacity:0.1;fill:#DCE0BB" d="M 6.8008,7 C 5.2496,7 4,8.2496 4,9.8008 V 10.801 C 4,9.2496 5.2496,8 6.8008,8 H 22.199 C 26.399,8 27.8,14 32,14 H 57.199 C 58.75,14 60,15.25 60,16.801 V 15.801 C 60,14.25 58.75,13 57.199,13 H 32 C 27.8,13 26.399,7 22.199,7 Z"/>
 <path style="fill:#39433D" d="M 16,42.112 22.016,45.586 C 22.006,45.724 22,45.862 22,46 22,49.314 24.686,52 28,52 31.314,52 34,49.314 34,46 33.996,45.726 33.974,45.454 33.934,45.184 L 41.21,39.988 C 44.99,39.874 47.996,36.78 48,33 48,29.134 44.866,26 41,26 37.134,26 33.998,29.134 34,33.028 L 29.356,40.164 C 28.912,40.058 28.456,40.002 28,40 27.094,40.002 26.2,40.21 25.386,40.606 L 16,35.188 M 41,28 C 43.762,28 46,30.238 46,33 46,35.762 43.762,38 41,38 38.238,38 36,35.762 36,33 36,30.238 38.238,28 41,28 Z M 41,30 C 39.344,30 38,31.344 38,33 38,34.656 39.344,36 41,36 42.656,36 44,34.656 44,33 44,31.344 42.656,30 41,30 Z M 28,42 C 30.21,42 32,43.79 32,46 32,48.21 30.21,50 28,50 26.092,49.998 24.452,48.648 24.082,46.778 L 25.492,47.594 C 26.932,48.424 28.758,47.936 29.59,46.496 30.42,45.056 29.932,43.23 28.492,42.398 L 27.816,42.008 C 27.878,42.004 27.938,42.002 28,42 Z"/>
</svg>
